X: 249
T: Lady C: Campbell's Reel
%R: reel
Z: 2014 John Chambers <jc:trillian.mit.edu>
B: Preston "Twenty four Country Dances for the Year 1794" p.105 #1
F: http://www.vwml.org/browse/browse-collections-dance-tune-books/browse-prestons1794# 2014-8-10
M: C|
L: 1/8
K: Edor
d |\
BEB>A BE Be | dB AF DEFA |\
BEB>A BE Be | dB AF E/E/E E :: f |\
gbeb gebe | fada fdaf |
gbeb gebg | dB AF E/E/E Ef |\
gbeb gebe | fada fdaf |\
afge fdec | (d/c/B/A/) dF E/E/E E :|
% - - - - - - - - - - - - - - - - - - - - - - - - -
%%begintext align
%% Cast off 2 Cu. up again .| Cross over 2 Cu.s
%% lead up the middle cast off 1 Cu: :| Turn
%% contrary corners :|. Lead outsides :|:
%%endtext
% - - - - - - - - - - - - - - - - - - - - - - - - -

%%sep 1 1 500
%%sep 1 1 500
